X:1
T:Polska frn Fryksdalen
H:Lten r mycket lik "Nu r det jul igen"
R:Polska
Z:Klas Krantz, 2006
O:Vrmland
L:1/8
M:3/4
K:G
"D"d>c d>A F>A | d>c d>A F>A | d>c d>e f>g | "A7"b>aa2z2 :|]
|: "G"~a2b>a"G"g2 | ~g2a>g"D"f2 | ~f2g>f "A7"e>d |1 c>e"D"d2a2 :|2 c>e"D"d2d2 |]
